X:126
T: Ride a Mile
N: O'Farrell's Pocket Companion v.2 (Sky ed. p.70)
N: "Irish"
M: 9/8
L: 1/8
R: slip jig
Q: 320
K: D
A|ABc ded cBA|dAF FAF A2B|ABc ded Bcd|e2E EGE G2 :|
B|AFD DED AFD|AFD DED Bcd|AFD DED AFD|BGE EFE G2 :|
B|d3 Bcd AFD|d2d BdB c2e|d3 Bcd AFA|BGE EFE G2 :|
B|ABc dAF dAF|ABc dAF B2d|ABc dAF dAF|BGE EFE G2 :|
